X:20
T:I’ll Never Leave Thee Laddie. RH.020
R:Reel
S:Rev.R.Harrison’s MS,c1815,Cumbria
O:England
A:Temple Sowerby,Cumbria
Z:vmp.Simon Wilson. Review PJH, 2008.
M:2/4
L:1/8
Q:1/4=180
K:D
d2 fa| gf ec| d2 fa| g2 B2|\
d2 fa| gf ed| B2 ed| c2 A2:|!
|: dc BA| GA BG| A2 gf| g2 B2|\
dc BA| GA BG| A2 ed| c2 A2:|

